X: 2
T: Loftus Jones
R: reel
M: 4/4
L: 1/8
K: Gmaj
|:g4 f2 e2|d2 c2 Bc d2|cBAB G2 z2 |BcBA G2 A2|Bc d2 cd e2|d2 cB cBAG|FGFE D2 z2|GAGF E2 c2||:dcdB cBcA|G2 D2 E2 F2|G2 E2 F2 G2|A2 F2 G2 A2|B2 G2 A2 B2|c4 d2 z2|cBAG FG A2|G2 dc B2 d2|g4 g2 z2 :||:d2 F2 G2 E2|F2 D2 E2 F2|G2 A2 F2 B2|E4 F4|BBBz AAAz |GABc B2 A2|GABc dcBA|G2 F2 E4|BEGE BEGE|DFDF DFDF|EGEG EGEG|FAFA FAFA|GBGB GBGB|GBGB GBGB|ef g2 f2 gf|e4 e2 f2|gGgG fGfG|eGeG dGdG|cGcG BGBG|AGFE DE F2|G2 dc B2 d2|AGFE D2 d2|cBAG FGAF|G4 G2 z2 :|


Tune 640	Setting 20763

